static/img/kroki/4c245f82e8ba3012a5289010bc83baa9.svg

<?xml version="1.0" encoding="us-ascii" standalone="no"?><svg xmlns="http://www.w3.org/2000/svg" xmlns:xlink="http://www.w3.org/1999/xlink" contentStyleType="text/css" height="352px" preserveAspectRatio="none" style="width:791px;height:352px;" version="1.1" viewBox="0 0 791 352" width="791px" zoomAndPan="magnify"><defs/><g><!--class aws_cognito_user_pool--><g id="elem_aws_cognito_user_pool"><rect codeLine="23" fill="#3D176E" height="39.7891" id="aws_cognito_user_pool" rx="2.5" ry="2.5" style="stroke:#000D19;stroke-width:0.5;" width="234" x="409" y="306.37"/><ellipse cx="424" cy="326.2645" fill="#ADD1B2" rx="11" ry="11" style="stroke:#181818;stroke-width:1.0;"/><path d="M426.9688,331.9052 Q426.3906,332.202 425.75,332.3427 Q425.1094,332.4989 424.4063,332.4989 Q421.9063,332.4989 420.5781,330.8583 Q419.2656,329.202 419.2656,326.077 Q419.2656,322.952 420.5781,321.2958 Q421.9063,319.6395 424.4063,319.6395 Q425.1094,319.6395 425.75,319.7958 Q426.4063,319.952 426.9688,320.2489 L426.9688,322.9677 Q426.3438,322.3895 425.75,322.1239 Q425.1563,321.8427 424.5313,321.8427 Q423.1875,321.8427 422.5,322.9208 Q421.8125,323.9833 421.8125,326.077 Q421.8125,328.1708 422.5,329.2489 Q423.1875,330.3114 424.5313,330.3114 Q425.1563,330.3114 425.75,330.0458 Q426.3438,329.7645 426.9688,329.1864 L426.9688,331.9052 Z " fill="#000000"/><text fill="#D9B8FF" font-family="Helvetica" font-size="17" lengthAdjust="spacing" textLength="192" x="443" y="332.1498">aws_cognito_user_pool</text></g><!--class aws_ec2_instance_type--><g id="elem_aws_ec2_instance_type"><rect codeLine="26" fill="#3D176E" height="39.7891" id="aws_ec2_instance_type" rx="2.5" ry="2.5" style="stroke:#000D19;stroke-width:0.5;" width="238" x="7" y="106.79"/><ellipse cx="22" cy="126.6845" fill="#ADD1B2" rx="11" ry="11" style="stroke:#181818;stroke-width:1.0;"/><path d="M24.9688,132.3252 Q24.3906,132.622 23.75,132.7627 Q23.1094,132.9189 22.4063,132.9189 Q19.9063,132.9189 18.5781,131.2783 Q17.2656,129.622 17.2656,126.497 Q17.2656,123.372 18.5781,121.7158 Q19.9063,120.0595 22.4063,120.0595 Q23.1094,120.0595 23.75,120.2158 Q24.4063,120.372 24.9688,120.6689 L24.9688,123.3877 Q24.3438,122.8095 23.75,122.5439 Q23.1563,122.2627 22.5313,122.2627 Q21.1875,122.2627 20.5,123.3408 Q19.8125,124.4033 19.8125,126.497 Q19.8125,128.5908 20.5,129.6689 Q21.1875,130.7314 22.5313,130.7314 Q23.1563,130.7314 23.75,130.4658 Q24.3438,130.1845 24.9688,129.6064 L24.9688,132.3252 Z " fill="#000000"/><text fill="#D9B8FF" font-family="Helvetica" font-size="17" lengthAdjust="spacing" textLength="196" x="41" y="132.5698">aws_ec2_instance_type</text></g><!--class aws_ec2_security_group--><g id="elem_aws_ec2_security_group"><rect codeLine="29" fill="#3D176E" height="39.7891" id="aws_ec2_security_group" rx="2.5" ry="2.5" style="stroke:#000D19;stroke-width:0.5;" width="245" x="280.5" y="106.79"/><ellipse cx="295.5" cy="126.6845" fill="#ADD1B2" rx="11" ry="11" style="stroke:#181818;stroke-width:1.0;"/><path d="M298.4688,132.3252 Q297.8906,132.622 297.25,132.7627 Q296.6094,132.9189 295.9063,132.9189 Q293.4063,132.9189 292.0781,131.2783 Q290.7656,129.622 290.7656,126.497 Q290.7656,123.372 292.0781,121.7158 Q293.4063,120.0595 295.9063,120.0595 Q296.6094,120.0595 297.25,120.2158 Q297.9063,120.372 298.4688,120.6689 L298.4688,123.3877 Q297.8438,122.8095 297.25,122.5439 Q296.6563,122.2627 296.0313,122.2627 Q294.6875,122.2627 294,123.3408 Q293.3125,124.4033 293.3125,126.497 Q293.3125,128.5908 294,129.6689 Q294.6875,130.7314 296.0313,130.7314 Q296.6563,130.7314 297.25,130.4658 Q297.8438,130.1845 298.4688,129.6064 L298.4688,132.3252 Z " fill="#000000"/><text fill="#D9B8FF" font-family="Helvetica" font-size="17" lengthAdjust="spacing" textLength="203" x="314.5" y="132.5698">aws_ec2_security_group</text></g><!--class aws_ec2_subnet--><g id="elem_aws_ec2_subnet"><rect codeLine="32" fill="#3D176E" height="39.7891" id="aws_ec2_subnet" rx="2.5" ry="2.5" style="stroke:#000D19;stroke-width:0.5;" width="179" x="560.5" y="106.79"/><ellipse cx="575.5" cy="126.6845" fill="#ADD1B2" rx="11" ry="11" style="stroke:#181818;stroke-width:1.0;"/><path d="M578.4688,132.3252 Q577.8906,132.622 577.25,132.7627 Q576.6094,132.9189 575.9063,132.9189 Q573.4063,132.9189 572.0781,131.2783 Q570.7656,129.622 570.7656,126.497 Q570.7656,123.372 572.0781,121.7158 Q573.4063,120.0595 575.9063,120.0595 Q576.6094,120.0595 577.25,120.2158 Q577.9063,120.372 578.4688,120.6689 L578.4688,123.3877 Q577.8438,122.8095 577.25,122.5439 Q576.6563,122.2627 576.0313,122.2627 Q574.6875,122.2627 574,123.3408 Q573.3125,124.4033 573.3125,126.497 Q573.3125,128.5908 574,129.6689 Q574.6875,130.7314 576.0313,130.7314 Q576.6563,130.7314 577.25,130.4658 Q577.8438,130.1845 578.4688,129.6064 L578.4688,132.3252 Z " fill="#000000"/><text fill="#D9B8FF" font-family="Helvetica" font-size="17" lengthAdjust="spacing" textLength="137" x="594.5" y="132.5698">aws_ec2_subnet</text></g><!--class aws_opensearch_domain--><g id="elem_aws_opensearch_domain"><rect codeLine="35" fill="#3D176E" height="39.7891" id="aws_opensearch_domain" rx="2.5" ry="2.5" style="stroke:#000D19;stroke-width:0.5;" width="251" x="400.5" y="206.58"/><ellipse cx="415.5" cy="226.4745" fill="#ADD1B2" rx="11" ry="11" style="stroke:#181818;stroke-width:1.0;"/><path d="M418.4688,232.1152 Q417.8906,232.412 417.25,232.5527 Q416.6094,232.7089 415.9063,232.7089 Q413.4063,232.7089 412.0781,231.0683 Q410.7656,229.412 410.7656,226.287 Q410.7656,223.162 412.0781,221.5058 Q413.4063,219.8495 415.9063,219.8495 Q416.6094,219.8495 417.25,220.0058 Q417.9063,220.162 418.4688,220.4589 L418.4688,223.1777 Q417.8438,222.5995 417.25,222.3339 Q416.6563,222.0527 416.0313,222.0527 Q414.6875,222.0527 414,223.1308 Q413.3125,224.1933 413.3125,226.287 Q413.3125,228.3808 414,229.4589 Q414.6875,230.5214 416.0313,230.5214 Q416.6563,230.5214 417.25,230.2558 Q417.8438,229.9745 418.4688,229.3964 L418.4688,232.1152 Z " fill="#000000"/><text fill="#D9B8FF" font-family="Helvetica" font-size="17" lengthAdjust="spacing" textLength="209" x="434.5" y="232.3598">aws_opensearch_domain</text></g><!--class aws_vpc--><g id="elem_aws_vpc"><rect codeLine="38" fill="#3D176E" height="39.7891" id="aws_vpc" rx="2.5" ry="2.5" style="stroke:#000D19;stroke-width:0.5;" width="112" x="594" y="7"/><ellipse cx="609" cy="26.8945" fill="#ADD1B2" rx="11" ry="11" style="stroke:#181818;stroke-width:1.0;"/><path d="M611.9688,32.5352 Q611.3906,32.832 610.75,32.9727 Q610.1094,33.1289 609.4063,33.1289 Q606.9063,33.1289 605.5781,31.4883 Q604.2656,29.832 604.2656,26.707 Q604.2656,23.582 605.5781,21.9258 Q606.9063,20.2695 609.4063,20.2695 Q610.1094,20.2695 610.75,20.4258 Q611.4063,20.582 611.9688,20.8789 L611.9688,23.5977 Q611.3438,23.0195 610.75,22.7539 Q610.1563,22.4727 609.5313,22.4727 Q608.1875,22.4727 607.5,23.5508 Q606.8125,24.6133 606.8125,26.707 Q606.8125,28.8008 607.5,29.8789 Q608.1875,30.9414 609.5313,30.9414 Q610.1563,30.9414 610.75,30.6758 Q611.3438,30.3945 611.9688,29.8164 L611.9688,32.5352 Z " fill="#000000"/><text fill="#D9B8FF" font-family="Helvetica" font-size="17" lengthAdjust="spacing" textLength="70" x="628" y="32.7798">aws_vpc</text></g><!--link aws_ec2_instance_type to aws_opensearch_domain--><g id="link_aws_ec2_instance_type_aws_opensearch_domain"><path codeLine="41" d="M205.03,147.01 C275.04,164.12 370.9016,187.5551 440.9716,204.6851 " fill="none" id="aws_ec2_instance_type-to-aws_opensearch_domain" style="stroke:#1A83AF;stroke-width:2.0;"/><polygon fill="#1A83AF" points="446.8,206.11,439.0074,200.0871,441.943,204.9226,437.1076,207.8583,446.8,206.11" style="stroke:#1A83AF;stroke-width:2.0;"/></g><!--link aws_ec2_security_group to aws_opensearch_domain--><g id="link_aws_ec2_security_group_aws_opensearch_domain"><path codeLine="42" d="M427.3,147.01 C448.86,164.15 475.5042,185.3251 497.0542,202.4651 " fill="none" id="aws_ec2_security_group-to-aws_opensearch_domain" style="stroke:#1A83AF;stroke-width:2.0;"/><polygon fill="#1A83AF" points="501.75,206.2,497.1962,197.4671,497.8368,203.0876,492.2164,203.7282,501.75,206.2" style="stroke:#1A83AF;stroke-width:2.0;"/></g><!--link aws_ec2_subnet to aws_opensearch_domain--><g id="link_aws_ec2_subnet_aws_opensearch_domain"><path codeLine="43" d="M625.5,147.01 C603.76,164.15 576.8801,185.3431 555.1601,202.4831 " fill="none" id="aws_ec2_subnet-to-aws_opensearch_domain" style="stroke:#1A83AF;stroke-width:2.0;"/><polygon fill="#1A83AF" points="550.45,206.2,559.993,203.7647,554.3751,203.1026,555.0372,197.4846,550.45,206.2" style="stroke:#1A83AF;stroke-width:2.0;"/></g><!--link aws_opensearch_domain to aws_cognito_user_pool--><g id="link_aws_opensearch_domain_aws_cognito_user_pool"><path codeLine="44" d="M526,246.8 C526,263.94 526,282.85 526,299.99 " fill="none" id="aws_opensearch_domain-to-aws_cognito_user_pool" style="stroke:#1A83AF;stroke-width:2.0;"/><polygon fill="#1A83AF" points="526,305.99,530,296.99,526,300.99,522,296.99,526,305.99" style="stroke:#1A83AF;stroke-width:2.0;"/></g><!--link aws_vpc to aws_ec2_security_group--><g id="link_aws_vpc_aws_ec2_security_group"><path codeLine="45" d="M601.2,47.22 C557.9,64.36 500.5487,87.0715 457.2787,104.2015 " fill="none" id="aws_vpc-to-aws_ec2_security_group" style="stroke:#1A83AF;stroke-width:2.0;"/><polygon fill="#1A83AF" points="451.7,106.41,461.5405,106.8163,456.3489,104.5695,458.5957,99.378,451.7,106.41" style="stroke:#1A83AF;stroke-width:2.0;"/></g><!--link aws_vpc to aws_ec2_subnet--><g id="link_aws_vpc_aws_ec2_subnet"><path codeLine="46" d="M650,47.22 C650,64.36 650,83.28 650,100.41 " fill="none" id="aws_vpc-to-aws_ec2_subnet" style="stroke:#1A83AF;stroke-width:2.0;"/><polygon fill="#1A83AF" points="650,106.41,654,97.41,650,101.41,646,97.41,650,106.41" style="stroke:#1A83AF;stroke-width:2.0;"/></g><!--link aws_vpc to aws_opensearch_domain--><g id="link_aws_vpc_aws_opensearch_domain"><path codeLine="47" d="M689.21,47.09 C729.88,69.64 784.03,108.78 757,146.58 C732.47,180.88 697.8933,198.8319 657.7233,209.9319 " fill="none" id="aws_vpc-to-aws_opensearch_domain" style="stroke:#1A83AF;stroke-width:2.0;"/><polygon fill="#1A83AF" points="651.94,211.53,661.6803,212.9884,656.7594,210.1983,659.5495,205.2774,651.94,211.53" style="stroke:#1A83AF;stroke-width:2.0;"/></g><!--SRC=[bP31Ji9048RlVOfDE9DGY08Naq92z4ACU3EccUvEwOPsjvdTGj3uxbegPksseDVvlvdvPZ8fa65HsYChi4YGJ61sKfL0KB28I1-MEjV41caAwMJQ3bTQsQl06WfazvZlqKeERU8vatodq1WsTg85yDsMTAL4CzuIAFCLeR8EjSp1cCXQaabbqP4HysIMfcsoFNGm4U7q5ZrCaq3wHaQZaGZdRUJggejt_n0R-OOiT9-srXOzJM_5YRfeMHEEf7VeEUzrV0GXfDgo6wVsr3YHGlfLtsGWzA6cKyYDkyPO9DJsMEBIkmhdCv5EE-67FZZWzUiO74pCzLP9g-FA8CMbrZbx3u8F1q0-ZgKo5XJ7k9xQ1HZa5KbxZEjjPITH9GfjEz4bAeD0F8k5Ba2gDh0lULFgLXc-3C9eDebMhyExxe51Z-9_EXlrFtRu9tcDti-3ywaUwfjVOK-k_Opl_0a0]--></g></svg>

<svg xmlns="http://www.w3.org/2000/svg" width="791" height="352" viewBox="0 0 791 352"><rect width="234" height="39.789" x="409" y="306.37" fill="#3D176E" rx="2.5" ry="2.5" style="stroke:#000d19;stroke-width:.5"/><circle cx="424" cy="326.264" r="11" fill="#ADD1B2" style="stroke:#181818;stroke-width:1"/><path d="M426.969 331.905q-.578.297-1.219.438-.64.156-1.344.156-2.5 0-3.828-1.64-1.312-1.657-1.312-4.782t1.312-4.781q1.328-1.656 3.828-1.656.703 0 1.344.156.656.156 1.219.453v2.719q-.625-.579-1.219-.844-.594-.281-1.219-.281-1.344 0-2.031 1.078-.687 1.062-.687 3.156t.687 3.172q.688 1.062 2.031 1.062.625 0 1.219-.265.594-.281 1.219-.86z"/><text x="443" y="332.15" fill="#D9B8FF" font-family="Helvetica" font-size="17" textLength="192">aws_cognito_user_pool</text><rect width="238" height="39.789" x="7" y="106.79" fill="#3D176E" rx="2.5" ry="2.5" style="stroke:#000d19;stroke-width:.5"/><circle cx="22" cy="126.684" r="11" fill="#ADD1B2" style="stroke:#181818;stroke-width:1"/><path d="M24.969 132.325q-.578.297-1.219.438-.64.156-1.344.156-2.5 0-3.828-1.64-1.312-1.657-1.312-4.782t1.312-4.781q1.328-1.656 3.828-1.656.703 0 1.344.156.656.156 1.219.453v2.719q-.625-.579-1.219-.844-.594-.281-1.219-.281-1.343 0-2.031 1.078-.687 1.062-.687 3.156t.687 3.172q.688 1.062 2.031 1.062.625 0 1.219-.265.594-.281 1.219-.86z"/><text x="41" y="132.57" fill="#D9B8FF" font-family="Helvetica" font-size="17" textLength="196">aws_ec2_instance_type</text><rect width="245" height="39.789" x="280.5" y="106.79" fill="#3D176E" rx="2.5" ry="2.5" style="stroke:#000d19;stroke-width:.5"/><circle cx="295.5" cy="126.684" r="11" fill="#ADD1B2" style="stroke:#181818;stroke-width:1"/><path d="M298.469 132.325q-.578.297-1.219.438-.64.156-1.344.156-2.5 0-3.828-1.64-1.312-1.657-1.312-4.782t1.312-4.781q1.328-1.656 3.828-1.656.703 0 1.344.156.656.156 1.219.453v2.719q-.625-.579-1.219-.844-.594-.281-1.219-.281-1.344 0-2.031 1.078-.687 1.062-.687 3.156t.687 3.172q.688 1.062 2.031 1.062.625 0 1.219-.265.594-.281 1.219-.86z"/><text x="314.5" y="132.57" fill="#D9B8FF" font-family="Helvetica" font-size="17" textLength="203">aws_ec2_security_group</text><rect width="179" height="39.789" x="560.5" y="106.79" fill="#3D176E" rx="2.5" ry="2.5" style="stroke:#000d19;stroke-width:.5"/><circle cx="575.5" cy="126.684" r="11" fill="#ADD1B2" style="stroke:#181818;stroke-width:1"/><path d="M578.469 132.325q-.578.297-1.219.438-.64.156-1.344.156-2.5 0-3.828-1.64-1.312-1.657-1.312-4.782t1.312-4.781q1.328-1.656 3.828-1.656.703 0 1.344.156.656.156 1.219.453v2.719q-.625-.579-1.219-.844-.594-.281-1.219-.281-1.343 0-2.031 1.078-.687 1.062-.687 3.156t.687 3.172q.688 1.062 2.031 1.062.625 0 1.219-.265.594-.281 1.219-.86z"/><text x="594.5" y="132.57" fill="#D9B8FF" font-family="Helvetica" font-size="17" textLength="137">aws_ec2_subnet</text><rect width="251" height="39.789" x="400.5" y="206.58" fill="#3D176E" rx="2.5" ry="2.5" style="stroke:#000d19;stroke-width:.5"/><circle cx="415.5" cy="226.475" r="11" fill="#ADD1B2" style="stroke:#181818;stroke-width:1"/><path d="M418.469 232.115q-.578.297-1.219.438-.64.156-1.344.156-2.5 0-3.828-1.64-1.312-1.657-1.312-4.782t1.312-4.781q1.328-1.656 3.828-1.656.703 0 1.344.156.656.156 1.219.453v2.719q-.625-.578-1.219-.844-.594-.281-1.219-.281-1.344 0-2.031 1.078-.687 1.062-.687 3.156t.687 3.172q.688 1.062 2.031 1.062.625 0 1.219-.265.594-.281 1.219-.86z"/><text x="434.5" y="232.36" fill="#D9B8FF" font-family="Helvetica" font-size="17" textLength="209">aws_opensearch_domain</text><rect width="112" height="39.789" x="594" y="7" fill="#3D176E" rx="2.5" ry="2.5" style="stroke:#000d19;stroke-width:.5"/><circle cx="609" cy="26.895" r="11" fill="#ADD1B2" style="stroke:#181818;stroke-width:1"/><path d="M611.969 32.535q-.578.297-1.219.438-.64.156-1.344.156-2.5 0-3.828-1.64-1.312-1.657-1.312-4.782t1.312-4.781q1.328-1.656 3.828-1.656.703 0 1.344.156.656.156 1.219.453v2.719q-.625-.578-1.219-.844-.594-.281-1.219-.281-1.343 0-2.031 1.078-.687 1.062-.687 3.156t.687 3.172q.688 1.062 2.031 1.062.625 0 1.219-.265.594-.281 1.219-.86z"/><text x="628" y="32.78" fill="#D9B8FF" font-family="Helvetica" font-size="17" textLength="70">aws_vpc</text><path fill="none" d="M205.03 147.01c70.01 17.11 165.872 40.545 235.942 57.675" style="stroke:#1a83af;stroke-width:2"/><path fill="#1A83AF" d="m446.8 206.11-7.793-6.023 2.936 4.836-4.835 2.935z" style="stroke:#1a83af;stroke-width:2"/><path fill="none" d="M427.3 147.01c21.56 17.14 48.204 38.315 69.754 55.455" style="stroke:#1a83af;stroke-width:2"/><path fill="#1A83AF" d="m501.75 206.2-4.554-8.733.64 5.62-5.62.641z" style="stroke:#1a83af;stroke-width:2"/><path fill="none" d="M625.5 147.01c-21.74 17.14-48.62 38.333-70.34 55.473" style="stroke:#1a83af;stroke-width:2"/><path fill="#1A83AF" d="m550.45 206.2 9.543-2.435-5.618-.662.662-5.618z" style="stroke:#1a83af;stroke-width:2"/><path fill="none" d="M526 246.8v53.19" style="stroke:#1a83af;stroke-width:2"/><path fill="#1A83AF" d="m526 305.99 4-9-4 4-4-4z" style="stroke:#1a83af;stroke-width:2"/><path fill="none" d="M601.2 47.22c-43.3 17.14-100.651 39.852-143.921 56.982" style="stroke:#1a83af;stroke-width:2"/><path fill="#1A83AF" d="m451.7 106.41 9.84.406-5.191-2.246 2.247-5.192z" style="stroke:#1a83af;stroke-width:2"/><path fill="none" d="M650 47.22v53.19" style="stroke:#1a83af;stroke-width:2"/><path fill="#1A83AF" d="m650 106.41 4-9-4 4-4-4z" style="stroke:#1a83af;stroke-width:2"/><path fill="none" d="M689.21 47.09c40.67 22.55 94.82 61.69 67.79 99.49-24.53 34.3-59.107 52.252-99.277 63.352" style="stroke:#1a83af;stroke-width:2"/><path fill="#1A83AF" d="m651.94 211.53 9.74 1.458-4.92-2.79 2.79-4.92z" style="stroke:#1a83af;stroke-width:2"/></svg>
